assets/img/components/modal-header.svg

<svg width="577" height="145" viewBox="0 0 577 145" fill="none" xmlns="http://www.w3.org/2000/svg">
<path d="M433 39.4242C433 17.6508 415.148 0 393.125 0L288 0V145H433V39.4242Z" fill="#286AD8"/>
<path d="M182.424 145C160.651 145 143 127.148 143 105.125V0H288V145H182.424Z" fill="#286AD8"/>
<path d="M432 145V-0.000152588L504.335 -0.000152588C544.467 -0.000152588 577 32.4592 577 72.4999C577 112.541 544.467 145 504.335 145L432 145Z" fill="#286AD8"/>
<g style="mix-blend-mode:multiply" opacity="0.4">
<path d="M411.96 145.009L221.138 144.93L200.75 116.938L206.531 119.25C209.478 119.25 304.933 119.361 335.014 119.396C339.985 119.402 344.005 115.377 344.011 110.407L344.077 58.7849L342.716 53.5815L411.96 145.009Z" fill="#1545BB"/>
</g>
<path d="M198 59.0488C198 54.0783 202.029 50.0488 207 50.0488H335C339.971 50.0488 344 54.0783 344 59.0488V110.189C344 115.159 339.971 119.189 335 119.189H207C202.029 119.189 198 115.159 198 110.189V59.0488Z" stroke="#5187DF" stroke-linecap="round" stroke-linejoin="bevel"/>
<g style="mix-blend-mode:multiply" opacity="0.4">
<path d="M215 74.8594C215 73.7548 215.895 72.8594 217 72.8594H263.456C264.561 72.8594 265.456 73.7548 265.456 74.8594C265.456 75.9639 264.561 76.8594 263.456 76.8594H217C215.895 76.8594 215 75.9639 215 74.8594Z" fill="#1545BB"/>
</g>
<path d="M215 86.543C215 85.4384 215.895 84.543 217 84.543H299.575C300.679 84.543 301.575 85.4384 301.575 86.543C301.575 87.6475 300.679 88.543 299.575 88.543H217C215.895 88.543 215 87.6475 215 86.543Z" fill="#5187DF"/>
<g style="mix-blend-mode:multiply" opacity="0.4">
<path d="M332.482 65.1094L330.062 67.5293L332.423 69.8906L331.314 70.999L328.952 68.6377L326.66 70.9307L325.551 69.8223L327.844 67.5283L325.492 65.1777L326.602 64.0684L328.952 66.4199L331.373 64L332.482 65.1094Z" fill="#1545BB"/>
</g>
<g style="mix-blend-mode:multiply" opacity="0.4">
<path d="M327.048 101.049H309.821C308.053 101.049 306.619 102.503 306.619 104.297V107.329C306.619 109.123 308.053 110.577 309.821 110.577H327.048C328.816 110.577 330.25 109.123 330.25 107.329V104.297C330.25 102.503 328.816 101.049 327.048 101.049Z" fill="#1545BB"/>
</g>
<path d="M298.844 100.666H281.617C279.848 100.666 278.415 102.12 278.415 103.914V106.946C278.415 108.74 279.848 110.194 281.617 110.194H298.844C300.612 110.194 302.046 108.74 302.046 106.946V103.914C302.046 102.12 300.612 100.666 298.844 100.666Z" fill="#5187DF"/>
<path d="M72.5 145C112.541 145 145 112.541 145 72.5C145 32.4594 112.541 0 72.5 0C32.4593 0 0 32.4594 0 72.5C0 112.541 32.4593 145 72.5 145Z" fill="#286AD8"/>
</svg>

<svg xmlns="http://www.w3.org/2000/svg" width="577" height="145" fill="none" viewBox="0 0 577 145"><path fill="#286ad8" d="M433 39.424C433 17.651 415.148 0 393.125 0H288v145h145zM182.424 145C160.651 145 143 127.148 143 105.125V0h145v145z"/><path fill="#286ad8" d="M432 145V0h72.335C544.467 0 577 32.46 577 72.5S544.467 145 504.335 145z"/><path fill="#1545bb" d="m411.96 145.009-190.822-.079-20.388-27.992 5.781 2.312c2.947 0 98.402.111 128.483.146 4.971.006 8.991-4.019 8.997-8.989l.066-51.622-1.361-5.203z" opacity=".4" style="mix-blend-mode:multiply"/><path stroke="#5187df" stroke-linecap="round" stroke-linejoin="bevel" d="M198 59.049a9 9 0 0 1 9-9h128a9 9 0 0 1 9 9v51.14a9 9 0 0 1-9 9H207a9 9 0 0 1-9-9z"/><path fill="#1545bb" d="M215 74.86a2 2 0 0 1 2-2h46.456a2 2 0 1 1 0 4H217a2 2 0 0 1-2-2" opacity=".4" style="mix-blend-mode:multiply"/><path fill="#5187df" d="M215 86.543a2 2 0 0 1 2-2h82.575a2 2 0 0 1 0 4H217a2 2 0 0 1-2-2"/><path fill="#1545bb" d="m332.482 65.11-2.42 2.42 2.361 2.36L331.314 71l-2.362-2.361-2.292 2.293-1.109-1.109 2.293-2.294-2.352-2.35 1.11-1.11 2.35 2.352 2.421-2.42zM327.048 101.049h-17.227c-1.768 0-3.202 1.454-3.202 3.248v3.032c0 1.794 1.434 3.248 3.202 3.248h17.227c1.768 0 3.202-1.454 3.202-3.248v-3.032c0-1.794-1.434-3.248-3.202-3.248" opacity=".4" style="mix-blend-mode:multiply"/><path fill="#5187df" d="M298.844 100.666h-17.227c-1.769 0-3.202 1.454-3.202 3.248v3.032c0 1.794 1.433 3.248 3.202 3.248h17.227c1.768 0 3.202-1.454 3.202-3.248v-3.032c0-1.794-1.434-3.248-3.202-3.248"/><path fill="#286ad8" d="M72.5 145c40.041 0 72.5-32.459 72.5-72.5S112.541 0 72.5 0 0 32.46 0 72.5 32.46 145 72.5 145"/></svg>
